X:1
T:The Water King
T:John Wall Callcott (1766-1821)
T:From "The Water King", a poem by Matthew Lewis (1775-1818) within his gothic novel "The Monk"
T:The Water King
T:A glee
T:Copyright © 
T:Copyright © 
T:Copyright © 
T:Copyright © 
T:Copyright © 
T:Copyright © 
T:Copyright © 
T:Copyright © 
T:Copyright © 
T:Copyright © 
T:Copyright © 
T:Copyright © 
T:Copyright © 
T:Copyright © 
T:Copyright © 
T:Copyright © 
C:John Wall Callcott (1766-1821)
Z:From "The Water King", a poem by Matthew Lewis
Z:(1775-1818) within his gothic novel "The Monk"
Z:Copyright ©
%%score [ ( 1 2 ) 3 4 ] { ( 5 7 ) | 6 }
L:1/8
Q:1/8=160
M:2/4
K:Eb
V:1 treble nm="Treble" snm="S."
V:2 treble 
V:3 treble nm="Treble" snm="S."
V:4 bass nm="Bass" snm="B."
V:5 treble nm="Piano" snm="Pno."
V:7 treble 
V:6 bass 
V:1
!mp!"^Moderately fast" B | eB z2 | GE z2 | F3 G/A/ | G2 z2 | cc c2 | cB AG | G2 F2 | F2 z d | %9
w: Oh!|mo- ther!|mo- ther!|now ad- *|vise,|How I may|yon- * der _|maid sur-|prise; Oh!|
 eB z2 | GE z2 | F3 G/A/ | G2 z2 | ee c2 | B2 G2 | FG AF | E3 || G | c2 c2 | d2 d2 |{f} e2 dc | %21
w: mo- ther!|mo- ther!|now ex- *|plain,|how I may|yon- der|maid _ ob- *|tain.|The|witch, she|gave him|* mour _|
{c} =B2 =AG | c2 de | d2 g2 | e2 e2 | d2 z d | ed cB |{B} =A2 GF | B2 cd | e2 c2 | d2 B2 | G=A Bc | %32
w: _ She *|formed him _|like a|gal- lant|knight, Of|wa- * ter _|_ next _|formed her _|hand, A|steed, whose|hou- * sings _|
 F2 =A2 | B2!f! z B | e2 g2 | B2 z B | d2 f2 | A2 z A | G2 B2 | A2 GF | B2 AG | F2 z F | G2 A2 | %43
w: were of|sand. The|Wa- ter|King then|swift he|went; To|Ma- ry's|church his _|course he _|bent, He|bound his|
 B2 e2 | d2 e2 | f2 A2 | G2 e2 | cd ef | B2 d2 | e2 || z2 | z4 | z4 | z4 | z4 | z4 | z4 | z4 | %58
w: cour- ser|to the|door, And|paced the|church- * yard _|three times|four.|||||||||
 z2 G2 |"^dolce" e2 dc | c2 B=A | GF GE | D2 F2 | B2 d2 | c2 e2 | =AB cA | B2 ||"^Espressivo" B2 | %68
w: The|love- ly _|maid she _|smil'd _ a- *|side, "Oh!|would I|were the|white _ chief's _|bride!"|Oh!|
 e2 e2 | fe dc | Bc BA | G2 G2 | c2 c2 | dc BA | GF GA | F2 z F | GB Ac | B3 B | B_d ce | _d2 d2 | %80
w: had some|spi- * rit _|deign'd * to _|sing: "Your|part- ner|is _ the _|Wa- * ter _|King!" The|maid _ had _|hate and|fear _ con- *|fessed, And|
 cB c_d | e2 _dc | B3 A | A2"^Faster" cd | e2 g2 | B2 e2 | d2 f2 | A3 A | G2 B2 | A2 GF | B2 AG | %91
w: spurned * the _|hand which _|then she|pressed, But _|no- thing|gi- ving|cause to|think, how|near she|strayed to _|dan- ger's _|
 F2 z F | G2 A2 | B2 e2 | d2 e2 | f2 A2 | G2 e2 | cd ec | B2 d2 | !fermata!e2 || z2 | z4 | z4 | %103
w: brink, Still|on she|went, 'til|hand in|hand, The|lov- ers|reached _ the _|yel- low|sand.||||
 z4 | z4 | z4 | z4 | z4 | z4 | z4 | z4 | z4 | z4 | z4 | z4 | z4 | !fermata!z2 z2 |!f! e2 B>B | %118
w: ||||||||||||||"Stop! stop! my|
 G2 z E | F2 GA | G2 z G | c2 c2 | cB AG | G2 F2 | E2 z2 | z4 | z4 | z4 | z4 | z4 | z4 | z4 | z4 | %133
w: love! the|wa- ters _|blue, E'en|now my|shrink- * ing _|foot be-|dew."|||||||||
!f! e2 B>B | G2 E2 | F2 GA | G2 G2 | cd ef | g2 c2 | ed c=B | c2 z2 | %141
w: "Stop! stop! for|God's sake!|stop! for _|oh! The|wa- * ters _|o'er my|bo- * som _|flow."|
"^[In the first time]"!p! cc/c/ cc | Be de | fA AA | Ge ed | cd ec | d4 | z2 d2 | =e4 | %149
w: Scarce was the word pro-|nounced, when knight and|cour- ser va- nished,|knight and cour- ser|va- nished from her|sight!|She|shrieks,|
 z !wedge!=e !wedge!e!wedge!e | f4 | d4 | z !wedge!d !wedge!d!wedge!d | e4 |"^cresc." z2 c2 | g4- | %156
w: but shrieks in|vain,|shrieks,|but shrieks in|vain,|||
 g4- | g3 g | f4 | e4 | _d3 d | c4 |!p! e3 e | d4 | z4 | z4 | z4 |"^cresc." z B AG | FA GF | %169
w: ||||dull the|cry,|dull the|cry,||||The bil- lows|dash, the bil- lows|
 G2 e2 | c>d e2 | d2 e2 |"^Slowly" A2 G2 | !fermata!F2 z2 |"^cresc.""^In the first time" z E DC | %175
w: dash, And|o'er _ their|hap- less|vic- tim|wash.|Three times while|
 G2 G2 | c2 de | d3 d | eg fe | df ed | e3 c | fe dc | d2 B2 | e2 g2 | f2 e2 |!p!"^Slowly" d4 | %186
w: strugg- ling|with the _|stream, The|love- * ly _|maid _ was _|heard to|stream, * The *|love- ly|maid was|heard to|scream,|
[Q:1/8=80][Q:1/8=80] e2 B>B | G2 E2 | F2 GA | G2 G2 | c2 c2 | cB AG | G2 F2 | F2 z2 | G2 B>B | %195
w: But when the|tem- pest's|rage was _|o'er, The|love- ly|maid _ was _|seen no|more,|but when the|
 _d2 B2 | c2 =de | d3"^dolce" d | e2 c2 | B2 G2 | FG AF | !fermata!E4 |] %202
w: tem- pest's|rage was _|o'er, the|love- ly|maid was|seen _ no _|more.|
V:2
 x | x4 | x4 | x4 | x4 | x4 | x4 | x4 | x4 | x4 | x4 | x4 | x4 | x4 | x4 | x4 | x3 || x | x4 | x4 | %20
w: ||||||||||||||||||||
 x4 | x4 | x4 | x4 | x4 | x4 | x4 | x4 | x4 | x4 | x4 | x4 | x4 | x4 | x4 | x4 | x4 | x4 | x4 | %39
w: |||||||||||||||||||
 x4 | x4 | x4 | x4 | x4 | x4 | x4 | x4 | x4 | x4 | x2 || x2 | x4 | x4 | x4 | x4 | x4 | x4 | x4 | %58
w: |||||||||||||||||||
 x4 | x4 | x4 | x4 | x4 | x4 | x4 | x4 | x2 || x2 | x4 | x4 | x4 | x4 | x4 | x4 | x4 | x4 | x4 | %77
w: |||||||||||||||||||
 x4 | x4 | x4 | x4 | x4 | x4 | x4 | x4 | x4 | x4 | x4 | x4 | x4 | x4 | x4 | x4 | x4 | x4 | x4 | %96
w: |||||||||||||||||||
 x4 | x4 | x4 | x2 || x2 | x4 | x4 | x4 | x4 | x4 | x4 | x4 | x4 | x4 | x4 | x4 | x4 | x4 | x4 | %115
w: |||||||||||||||||||
 x4 | x4 | x4 | x4 | x4 | x4 | x4 | x4 | x4 | x4 | x4 | x4 | x4 | x4 | x4 | x4 | x4 | x4 | x4 | %134
w: |||||||||||||||||||
 x4 | x4 | x4 | x4 | x4 | x4 | x4 | x4 | x4 | x4 | x4 | x4 | x4 | x4 | x4 | x4 | x4 | x4 | x4 | %153
w: |||||||||||||||||||
 x4 | x2 C2 | G4- | G4- | G3 G | F4 | E4 | x4 | x4 | x4 | x4 | x4 | x4 | x4 | x4 | x4 | x4 | x4 | %171
w: |For|high|_|* the|wind|dull,||||||||||||
 x4 | x4 | x4 | x4 | x4 | x4 | x4 | x4 | x4 | x4 | x4 | x4 | x4 | x4 | x4 | x4 | x4 | x4 | x4 | %190
w: |||||||||||||||||||
 x4 | x4 | x4 | x4 | x4 | x4 | x4 | x4 | x4 | x4 | x4 | x4 |] %202
w: ||||||||||||
V:3
!mp! G | GE z2 | EE z2 | D3 E/F/ | E2 z2 | AA A2 | AG FE | E2 D2 | D2 z F | GE z2 | EE z2 | %11
w: Oh!|mo- ther!|mo- ther!|now ad- *|vise,|How I may|yon- * der _|maid sur-|prise; Oh!|mo- ther!|mo- ther!|
 D3 E/F/ | E2 z2 | cc A2 | G2 E2 | DE FD | E3 || z | z4 | z4 | z4 | z4 | z4 | z4 | z4 | z4 | z4 | %27
w: now ex- *|plain,|how I may|yon- der|maid _ ob- *|tain.|||||||||||
 z4 | z4 | z4 | z4 | z4 | z4 | z2!f! z G | G2 B2 | G2 z G | F2 A2 | F2 z F | E2 G2 | F2 ED | %40
w: ||||||The|Wa- ter|King then|swift he|went; To|Ma- ry's|church his _|
 G2 FE | D2 z D | E2 F2 | G2 G2 | F2 G2 | A2 F2 | E2 G2 | A2 GA | G2 F2 | G2 || z2 | z4 | z4 | z4 | %54
w: course he _|bent, He|bound his|cour- ser|to the|door, And|paced the|church- yard _|three times|four.|||||
 z4 | z4 | z4 | z4 | z4 | z4 | z4 | z4 | z4 | z4 | z4 | z4 | z2 ||"^Espressivo" G2 | G2 G2 | %69
w: |||||||||||||Oh!|had some|
 G2 G2 | F2 F2 | E2 E2 | E2 E2 | E2 E2 | ED EF | D2 z D | EG FA | G3 G | GB Ac | B2 B2 | AG AB | %81
w: spi- rit|deigned to|sing: "Your|part- ner|is the|Wa- * ter _|King!" The|maid _ had _|hate and|fear _ con- *|fessed, And|spurned * the _|
 c2 BA | G3 A | A2"^Faster" A2 | G2 B2 | G2 G2 | F2 A2 | F3 F | E2 G2 | F2 ED | G2 FE | D2 z D | %92
w: hand which _|then she|pressed, But|no- thing|gi- ving|cause to|think, how|near she|strayed to _|dan- ger's _|brink, Still|
 E2 F2 | G2 G2 | F2 G2 | A2 F2 | E2 G2 | AB cA | G2 F2 | !fermata!G2 ||!mf! G2 | c2 c2 | d2 d2 | %103
w: on she|went, 'til|hand in|hand, The|lov- ers|reached _ the _|yel- low|sand.|"As-|cend this|steed with|
{f} e2 dc |{c} =B2 =AG | c2 de | d2 g2 |{f} e2 dc | G2 G2 | ed cB | B=A GF | B2 d2 | c2 f2 | %113
w: * my _|_ We _|needs must _|cross the|* stream- let|here; ride|bold- * ly _|in, _ it _|is not|deep, The|
 d2 B2 |"^dim." G=A BG | F3 E | !fermata!D2 z2 | z4 | z4 | z4 | z4 | z4 | z4 | z4 | z4 | %125
w: winds are|hush'd, _ the _|bil- lows|sleep."|||||||||
"^dolce" e2 B>B | G2 E2 | F2 GA | G2 e2 | e2 c2 | B2 G2 | FG AF | E2 z2 | z4 | z4 | z4 | z4 | z4 | %138
w: "Oh lay your|fears a-|side, sweet _|heart! We|now have|reached the|deep- * est _|part,"||||||
 z4 | z4 | z4 |!p! AA/A/ AA | GG FG | AF FF | Ec cB | =AB cA | B4 | z2 B2 | c4 | %149
w: |||Scarce was the word pro-|nounced, when knight and|cour- ser va- nished,|knight and cour- ser|va- nished from her|sight!|She|shrieks,|
 z !wedge!c !wedge!c!wedge!c | c4 | B4 | z !wedge!B !wedge!B!wedge!B | B4 | z4 | z2"^cresc." D2 | %156
w: but shrieks in|vain,|shrieks,|but shrieks in|vain,||The|
 ED EF | G2 c2 | =Bc dB | c2 z2 | B3 B | c4 |!p! c3 c | B4 | z4 | z4 | z4 |"^cresc." z G FE | %168
w: wild _ winds _|ri- sing|dull _ the _|cry,|dull the|cry,|dull the|cry,||||The bil- lows|
 DF ED | E2 z2 | z2 B2 | A2 G2 |"^Slowly" F2 E2 | !fermata!D2 z2 | z4 | z4 |"^cresc." z E DC | %177
w: dash, the bil- lows|dash,|their|hap- less|vic- tim|wash.|||Three times while|
 G2 G2 | c2 c2 | =Bd cB | c3 c | A2 c2 | B2 B2 | G2 e2 | d2 c2 |!p! =B4 | G2 G>G | E2 E2 | D2 EF | %189
w: strugg- ling|with the|stream, * The _|love- ly|stream, The|love- ly|maid was|heard to|scream,|But when the|tem- pest's|rage was _|
 E2 E2 | E2 A2 | AG FE | E2 D2 | D2 z2 | E2 G>G | B2 G2 | AB AG | F3"^dolce" F | G2 A2 | G2 E2 | %200
w: o'er, The|love- ly|maid _ was _|seen no|more,|but when the|tem- pest's|rage _ was _|o'er, the|love- ly|maid was|
 DE FD | !fermata!E4 |] %202
w: seen _ no _|more.|
V:4
!mp! E, | E,E, z2 | E,E, z2 | B,,3 B,, | E,2 z2 | A,,A,, E,2 | A,,2 A,,2 | B,,2 B,,2 | B,,2 z B, | %9
w: Oh!|mo- ther!|mo- ther!|now ad-|vise,|How I may|yon- der|maid sur-|prise; Oh!|
 E,E, z2 | E,E, z2 | B,,3 B,, | E,2 z2 | A,,A,, A,,2 | B,,2 B,,2 | B,,2 B,,2 | E,3 || G, | %18
w: mo- ther!|mo- ther!|now ex-|plain,|how I may|yon- der|maid ob-|tain.|The|
{F,} E,2 D,C, | =B,,2 =A,,G,, | C,2 D,E, | D,2 G,2 | E,2 D,C, | =B,,2 G,,2 | C,D, E,F, | G,2 z G, | %26
w: * she *|gave him _|ar- mour _|white, She|formed him _|like a|gal- * lant _|knight, Of|
 C,2 C,2 | F,2 E,2 | D,2 C,B,, | C,2 F,2 | B,,2 D,2 | E,2 D,E, | F,2 F,2 | B,,2!f! z E, | E,2 E,2 | %35
w: wa- ter|clear next|formed her _|hand, A|steed, whose|hou- sings _|were of|sand. The|Wa- ter|
 G,2 z E, | B,,2 B,,2 | D,2 z B,, | E,2 E,2 | F,2 B,,2 | G,,2 A,,2 | B,,2 z B,, | E,2 E,2 | %43
w: King then|swift he|went; To|Ma- ry's|church his|course he|bent, He|bound his|
 E,2 E,2 | B,2 B,2 | B,,2 B,,2 | E,2 E,2 | A,,2 A,,2 | B,,2 B,,2 | E,2 || B,2 | B,2 G,2 | G,2 E,2 | %53
w: cour- ser|to the|door, And|paced the|church- yard|three times|four.|The|priest said,|as the|
 E,F, G,A, | B,3 G, | G,2 E,2 | E,2 C,2 | C,D, E,F, | G,2 z2 | z4 | z4 | z4 | z4 | z4 | z4 | z4 | %66
w: knight _ drew _|near, "And|where- fore|comes the|white _ chief _|here?"||||||||
 z2 ||"^Espressivo" E,2 | E,2 E,2 | C,2 C,2 | D,2 D,2 | E,2 E,2 | A,,2 A,,2 | A,,2 A,,2 | %74
w: |Oh!|had some|spi- rit|deigned to|sing: "Your|part- ner|is the|
 B,,2 B,,2 | B,,2 z B,, | E,2 E,2 | E,3 E, | E,2 E,2 | E,2 E,2 | A,2 A,2 | C,2 _D,2 | E,2 E,2 | %83
w: Wa- ter|King!" The|maid had|hate and|fear con-|fessed, And|spurned the|hand which|then she|
 A,,2"^Faster" A,2 | E,2 E,2 | E,2 E,2 | B,,2 B,,2 | B,,3 B,, | E,2 E,2 | F,2 B,,2 | G,,2 A,,2 | %91
w: pressed, But|no- thing|gi- ving|cause to|think, how|near she|strayed to|dan- ger's|
 B,,2 z B,, | E,2 E,2 | E,2 E,2 | B,2 B,2 | B,,2 B,,2 | E,2 E,2 | A,,2 A,,2 | B,,2 B,,2 | %99
w: brink, Still|on she|went, 'til|hand in|hand, The|lov- ers|reached the|yel- low|
 !fermata!E,2 || z2 | z4 | z4 | z4 | z4 | z4 | z4 | z4 | z4 | z4 | z4 | z4 | z4 | z4 | z4 | z4 | %116
w: sand.|||||||||||||||||
 !fermata!z2 z2 | z4 | z4 | z4 | z4 | z4 | z4 | z4 | z4 | z4 | z4 | z4 | z4 | z4 | z4 | z4 | z4 | %133
w: |||||||||||||||||
 z4 | z4 | z4 | z4 | z4 | z4 | z4 | z4 | z4 |!p! E,E,/E,/ E,E, | D,B,, C,D, | E,C, D,E, | F,2 F,2 | %146
w: |||||||||Scarce was the word pro-|nounced, when knight and|cour- ser va- nished||
 B,,4 | z2 B,2 | B,4 | z !wedge!B, !wedge!B,!wedge!B, | A,4 | A,4 | %152
w: sight!|She|shrieks,|but shrieks in|vain,|shrieks,|
 z !wedge!A, !wedge!A,!wedge!A, | G,4 | z4 |"^cresc." z2 G,,2 | C,=B,, C,D, | E,D, E,F, | %158
w: but shrieks in|vain,||The|wild _ winds _|ri- * sing *|
 G,=A, =B,G, | C2 z2 | G,3 G, |!p! A,4 | =A,3 A, | B,4 | z2"^cresc." B,,2 | E,4 | G,4 | B,2 z2 | %168
w: dull _ the _|cry,|dull the|cry,|dull the|cry,|The|fiend|ex-|ults,|
 z4 | z E, G,E, | A,2 G,2 | F,2 E,2 |"^Slowly" D,2 E,2 | !fermata!B,,2 z2 | z4 | z4 | z4 | z4 | %178
w: |And o'er their|hap- less,|hap- less|vic- tim|wash.|||||
"^cresc." z E, D,C, | G,2 G,2 | CB, A,G, | F,2 F,2 | B,A, G,F, | E,2 C,2 | D,2 E,F, |!p! G,4 | %186
w: Full oft while|strugg- ling|with _ the _|stream, The|love- * ly _|maid was|heard to _|scream,|
 E,2 E,>E, | E,2 E,2 | B,,2 B,,2 | E,2 E,2 | A,,2 A,,2 | A,,2 A,,2 | B,,2 B,,2 | B,,2 z2 | %194
w: But when the|tem- pest's|rage was|o'er, The|love- ly|maid was|seen no|more,|
 E,2 E,>E, | E,2 E,2 | A,G, F,E, | B,,3"^dolce" B,, | E,2 A,,2 | B,,2 B,,2 | B,,2 B,,2 | %201
w: but when the|tem- pest's|rage _ was _|o'er, the|love- ly|maid was|seen no|
 !fermata!E,4 |] %202
w: more.|
V:5
"^Accompaniment added by William Horsley (1774-1858)""^Moderately fast" [GB] | [Ge][EB] z2 | %2
 GE x2 | [DF]3 ([EG]/[FA]/) | [EG]2 z2 | [Ac][Ac] [Ac]2 | ([Ac][GB])([FA][EG]) | [EG]2 [DF]2 | %8
 [DF]2 z [Fd] | eB x2 | GE x2 | [DF]3 ([EG]/[FA]/) | [EG]2 z2 | [ce][ce] [Ac]2 | [GB]2 [EG]2 | %15
 ([DF][EG]) ([FA][DF]) | E3 || G | c2 c2 | d2 d2 |{f} e2 dc |{c} =B2 =AG | c2 de | d2 g2 | e2 e2 | %25
 d2 z d | (ed) (cB) |{B} =A2 (GF) | B2 (cd) | e2 c2 | d2 B2 | (G=A) ([FB][Gc]) | F2 =A2 | %33
 B2!f! z [GB] | [Ge]2 [Bg]2 | [GB]2 z [GB] | [Fd]2 [Af]2 | [FA]2 z [FA] | [EG]2 [GB]2 | %39
 [FA]2 ([EG][DF]) | [GB]2 ([FA][EG]) | [DF]2 z [DF] | ([EG]2 [FA]2 | [GB]2 [Ge]2) | [Fd]2 [Ge]2 | %45
 [Af]2 [FA]2 | [EG]2 [Ge]2 | cd ([Ge][Af]) | ([GB]2 [Fd]2 | [Ge]2) || z2 | z4 | z4 | z4 | z4 | z4 | %56
 z4 | z4 | z2 G2 |"^dolce" e2 (dc) | c2 (B=A) | (GFGE) | D2 F2 | B2 d2 | c2 e2 | (=AB) (cA) | B2 || %67
 B2 | e2 e2 | (fedc) | (BcBA) | G2 G2 | c2 c2 | (dcBA) | (GFGA) | F2 z [DF] | ([EG][GB][FA][Ac]) | %77
 [GB]3 [GB] | ([GB][B_d][Ac][ce]) | [B_d]2 [Bd]2 | ([Ac][GB][Ac][B_d]) | [ce]2 ([B_d][Ac]) | %82
 [GB]3 A | A2 (cd) | [Ge]2 [Bg]2 | [GB]2 [Ge]2 | [Fd]2 [Af]2 | [FA]3 [FA] | [EG]2 [GB]2 | %89
 [FA]2 ([EG][DF]) | [GB]2 ([FA][EG]) | [DF]2 z [DF] | [EG]2 [FA]2 | [GB]2 [Ge]2 | [Fd]2 [Ge]2 | %95
 [Af]2 [FA]2 | [EG]2 [Ge]2 | [Ac][Bd] [ce][Ac] | [GB]2 [Fd]2 | !fermata![Ge]2 ||!mf! G2 | c2 c2 | %102
 d2 d2 |{f} e2 (dc) |{c} =B2 (=AG) | c2 (de) | d2 g2 |{f} e2 (dc) | G2 G2 | (edcB) | (B=AGF) | %111
 B2 d2 | c2 f2 | d2 B2 |"^dim." (G=A) (BG) | F3 E | !fermata!D2 z2 |!f! e2 B>B | G2 z E | F2 (GA) | %120
 G2 z G | c2 c2 | (cB) (AG) | G2 F2 | E2 z2 |"^dolce" e2 B>B | G2 E2 | F2 (GA) | G2 e2 | e2 c2 | %130
 B2 G2 | (FGAF) | E2 z2 |!f! e2 B>B | G2 E2 | F2 (GA) | G2 G2 | (cdef) | g2 c2 | (edc=B) | c2 z2 | %141
"^[In the first time]"!p! [Ac][Ac]/[Ac]/ [Ac][Ac] | ([GB][Ge]) ([Fd][Ge]) | ([Af][FA]) [FA][FA] | %144
 ([EG][ce]) ([ce][Bd]) | ([=Ac][Bd]) ([ce][Ac]) | [Bd]4 | z2 [Bd]2 | [c=e]4 | %149
 z !wedge![c=e]!wedge![ce]!wedge![ce] | [cf]4 | [Bd]4 | z !wedge![Bd]!wedge![Bd]!wedge![Bd] | %153
 [Be]4 |"^cresc." z2 C2 | G4- | G4- | G2 g2 | f4 | e4 | [B_d]3 [Bd] | c4 |!p! [ce]3 [ce] | [Bd]4 | %164
 z4 | z4 | z4 | z"^cresc." ([GB][FA][EG]) | ([DF][FA] [EG][DF]) | [EG]2 e2 | c>d e2 | [Ad]2 [Ge]2 | %172
"^Slowly" [FA]2 [EG]2 | !fermata![DF]2 z2 | z"^cresc." EDC | G2 G2 | (c2 de) | d3 d | egfe | %179
 ([=Bd][df][ce][Bd]) | e3 c | fe dc | d2 B2 | e2 g2 | f2 e2 | d4 |"^Slowly"!p! e2 B>B | G2 E2 | %188
 [DF]2 ([EG][FA]) | [EG]2 [EG]2 | [Ec]2 [Ac]2 | ([Ac][GB][FA][EG]) | [EG]2 [DF]2 | [DF]2 z2 | %194
 [EG]2 [GB]>[GB] | [B_d]2 [GB]2 | c2 =de | d3"^dolce" d | e2 c2 | B2 G2 | ([DF][EG] [FA][DF]) | %201
 !fermata!E4 |] %202
V:6
 E, | E,2 z2 | E,2 z2 | B,,4 | E,2 z2 | A,,4 | A,,4 | B,,4 | B,,2 z B, | E,2 z2 | E,2 z2 | B,,4 | %12
 E,2 z2 | A,,4 | B,,4 | B,,4 | E,3 || G, |{F,} E,2 D,C, | =B,,2 =A,,G,, | C,2 D,E, | D,2 G,2 | %22
 E,2 D,C, | =B,,2 G,,2 | C,D,E,F, | G,2 z G, | C,4 | F,2 E,2 | D,2 C,B,, | C,2 F,2 | B,,2 D,2 | %31
 E,2 D,E, | F,4 | B,,2 z E, | E,4 | G,2 z E, | B,,4 | D,2 z B,, | E,4 | F,2 B,,2 | G,,2 A,,2 | %41
 B,,2 z B,, | E,4 | E,4 | B,4 | B,,4 | E,4 | A,,4 | B,,4 | E,2 || B,2 | B,2 G,2 | G,2 E,2 | %53
 E,F, G,A, | B,3 G, | G,2 E,2 | E,2 C,2 | C,D, E,F, | G,2 z2 | z4 | z4 | z4 | z4 | z4 | z4 | z4 | %66
 z2 ||"^Espressivo" E,2 | E,4 | C,4 | D,4 | E,4 | A,,4 | A,,4 | B,,4 | B,,2 z B,, | E,4 | E,4 | %78
 E,4 | E,4 | A,4 | C,2 _D,2 | E,4 | A,,2"^Faster" A,2 | E,4 | E,4 | B,,4 | B,,4 | E,4 | F,2 B,,2 | %90
 G,,2 A,,2 | B,,2 z B,, | E,4 | E,4 | B,4 | B,,4 | E,4 | A,,4 | B,,4 | !fermata!E,2 || z2 | z4 | %102
 z4 | z4 | z4 | z4 | z4 | z4 | z4 | z4 | z4 | z4 | z4 | z4 | z4 | z4 | z4 | z4 | z4 | z4 | z4 | %121
 z4 | z4 | z4 | z4 | z4 | z4 | z4 | z4 | z4 | z4 | z4 | z4 | z4 | z4 | z4 | z4 | z4 | z4 | z4 | %140
 z4 | z4 | E,2 E,2 | D,B,, C,D, | E,C, D,E, | F,4 | B,,4 | z2 B,2 | B,4 | %149
 z !wedge!B,!wedge!B,!wedge!B, | A,4 | A,4 | z !wedge!A,!wedge!A,!wedge!A, | G,4 | z4 | z2 G,,2 | %156
 C,=B,,C,D, | E,D,E,F, | G,=A,=B,G, | C2 z2 | G,3 G, | A,4 | =A,3 A, | B,4 | z2"^cresc." B,,2 | %165
 E,4 | G,4 | B,2 z2 | z4 | z E,G,E, | A,2 G,2 | F,2 E,2 | D,2 E,2 | !fermata!B,,2 z2 | z4 | z4 | %176
 z4 | z4 | z E,D,C, | G,4 | CB,A,G, | F,4 | B,A,G,F, | E,2 C,2 | D,2 E,F, | G,4 | E,4 | E,4 | %188
 B,,4 | E,4 | A,,4 | A,,4 | B,,4 | B,,2 z2 | E,4 | E,4 | A,G,F,E, | B,,4 | E,2 A,,2 | B,,4 | B,,4 | %201
 !fermata!E,4 |] %202
V:7
 x | x4 | EE z2 | x4 | x4 | x4 | x4 | x4 | x4 | G2 z2 | EE z2 | x4 | x4 | x4 | x4 | x4 | x3 || x | %18
 G2 G2 | G4 | G4 | G2 x2 | G2 x2 | G2 =B2 | c2 c2 | =B2 x2 | x4 | x4 | x4 | x2 =A2 | B2 F2 | %31
 E2 x2 | F2 E2 | D2 x2 | x4 | x4 | x4 | x4 | x4 | x4 | x4 | x4 | x4 | x4 | x4 | x4 | x4 | A2 x2 | %48
 x4 | x2 || x2 | x4 | x4 | x4 | x4 | x4 | x4 | x4 | x4 | x4 | x4 | x4 | x4 | x4 | x4 | x4 | x2 || %67
 G2 | G2 G2 | G4 | F4 | E2 E2 | E4- | E4 | EDEF | D2 x2 | x4 | x4 | x4 | x4 | x4 | x4 | x2 x A | %83
 A2 A2 | x4 | x4 | x4 | x4 | x4 | x4 | x4 | x4 | x4 | x4 | x4 | x4 | x4 | x4 | x4 | x2 || x2 | x4 | %102
 x4 | x4 | x4 | x4 | x4 | x4 | x4 | x4 | x4 | x4 | x4 | x4 | x4 | x4 | x4 | x4 | x4 | x4 | x4 | %121
 x4 | x4 | x4 | x4 | x4 | x4 | x4 | x4 | x4 | x4 | x4 | x4 | x4 | x4 | x4 | x4 | x4 | x4 | x4 | %140
 x4 | x4 | x4 | x4 | x4 | x4 | x4 | x4 | x4 | x4 | x4 | x4 | x4 | x4 | x4 | z2 D2 | ED EF | G2 Gc | %158
 =Bc dB | c2 z2 | x4 | x4 | x4 | x4 | x4 | x4 | x4 | x4 | x4 | x2 z2 | z2 B2 | x4 | x4 | x4 | x4 | %175
 x4 | z EDC | G2 G2 | c2 c2 | x4 | c3 c | A3 c | B2 B2 | G2 e2 | d2 c2 | =B4 | G2 G2 | E4 | x4 | %189
 x4 | x4 | x4 | x4 | x4 | x4 | x4 | ABAG | F3 F | G2 A2 | G2 E2 | x4 | x4 |] %202

